X: 10
T: Sweeney's Buttermilk
C: Brendan McGlinchey
R: Reel
S: Tony Sullivan
H:
N:
D: Sully's Fancy
Z: Adrian Scahill
M: 4/4
L: 1/8
K: A
FBB2 FBBA | (3Bcd cA BEE2 | FBB2 ABce | afec Baga |
f2ea fecf | ec (3B^Bc =BAFE | FBB2 ABce | afec B3A :|
FBdc BFF2 | EAcB AEE2 | FBdB ceab | afec cddc |
Bcde fBB2 | afec ABce | f2bf afea | afec B3A :|
